X:1
T:Title
%%score { 1 | 2 }
L:1/8
M:4/4
K:Eb
V:1 treble nm="Grand Piano"
V:2 bass 
V:1
 z4 z2[Q:1/4=100] G2 | G3 G FG A>A | G6 [DF]2 | [DF]3 [_D=E] [=DF][DF] [DF]>[DG] |[M:3/4] E6 | %5
[M:1/4] z B |[M:4/4] A>G c2- cA G>A | B4 E2 EE | %8
[M:19/16] EF[EG]/-[EG]/-[EG]/-[EG]/-[EG]/-[EG]-<[EG][DF][B,E][DF] |[M:3/4] E6 |[M:1/4] z B | %11
[M:4/4] A>G c2- cA G>A | B4 E2 EE | %13
[M:19/16] EF[B,EG]/-[B,EG]/-[B,EG]/-[B,EG]/-[B,EG]/-[B,EG]-<[B,EG][A,DF][G,B,E][A,DF] | %14
[M:3/4] [G,E]6 |] %15
V:2
 z4 z2 [E,B,E]2 | [E,B,E]3 [E,B,E] [E,A,E][E,B,E] [E,CE]>[E,CE] | [E,B,E]6 [B,,A,]2 | %3
 [B,,A,]3 [B,,G,] [B,,A,][B,,A,] [B,,A,]>[B,,B,] |[M:3/4] [E,G,]6 |[M:1/4] z [G,B,E] | %6
[M:4/4] [F,B,D]>[E,B,E] [A,E]2- [A,E][F,B,D] [E,B,E]>[F,B,E] | [G,B,E]4 [E,G,B,]2 [C,G,C][C,G,C] | %8
[M:19/16] [C,G,C]-<[C,G,C][B,,B,]/-[B,,B,]/-[B,,B,]/-[B,,B,]/-[B,,B,]/-[B,,B,]-<[B,,B,][B,,A,][B,,G,][B,,A,] | %9
[M:3/4] [E,G,]6 |[M:1/4] z [G,B,E] |[M:4/4] [F,B,D]>[E,B,E] [A,E]2- [A,E][F,B,D] [E,B,E]>[F,B,E] | %12
 [G,B,E]4 [E,G,B,]2 [C,G,C][C,G,C] | %13
[M:19/16] [C,G,C]-<[C,G,C]B,,/-B,,/-B,,/-B,,/-B,,/-B,,-<B,,B,,B,,B,, |[M:3/4] E,6 |] %15

